X:1
T:Cello Suite No.6 Sarabande for Piano
T:Cello Suite No.6 Sarabande for Piano
T:Bach
C:Frances
%%score ( 1 2 3 4 )
L:1/8
Q:1/2=60
M:3/2
K:D
V:1 bass nm="Piano" snm="Pno."
V:2 bass 
V:3 bass 
V:4 bass 
V:1
|: F4 F6 G2 | E2 C2 D6 B2 | A2 F2 G6 A2 | G2 F2 G2 E2 F4 | F4 ^G6 A2 | B2 x2 x8 | %6
 D2 C2 C2 B,2 B,2 D2 | D2 C2 C4 x4 :: E4 E6 E2 | E2 C2 ^D2 A,B, =C2 E,2 | =C2 A,2 B,2 FG A2 ^D,2 | %11
 A2 F2 G6 G2 | G2 F2 =c4 x4 | F,2 E2 D2 =c2 B4 | D2 E2 E2 F2 F2 G2 | G4 G6 B2 | B2 G2 G2 E2 E2 C2 | %17
 C2 A,2 A,2 G,2 G,2 A2 | A2 F2 F2 D2 D2 B,2 | B,2 G,2 G,2 F,2 F,2 G2 | G2 D2 D2 C2 C2 B,2 | %21
 G2 C2 C2 B,2 B,2 A,2 | A,2 G2 G2 F2 F2 ^G2 | ^G2 A2 A6 C2 | A2 F2 F2 D2 D2 C2 | A2 x2 C6 D2 | %26
 A2 =F2 F2 D2 D2 C2 | C2 DE E6 D2 | D2 EF/G/ G2 F2 F2 E2 | E2 F2 F2 E2 E2 D2 | D4 D4 C4 | %31
 C2 D2 D4 x4 :| %32
V:2
|: A,4 A,6 x2 | G,4 F,6 x2 | D4 C6 x2 | A,4 x8 | B,4 D6 x2 | D2 C2 D6 E2 | E,4 D,4 E,4 | E,4 x8 :: %8
 C4 C6 x2 | A,2 x2 x8 | F2 x2 x8 | B,4 B,6 x2 | A,6 D2 E2 G,2 | x4 x4 D4 | G,4 G,4 =C4 | %15
 =C2 A,2 B,6 x2 | D2 B,2 B,2 x2 x4 | x12 | D2 A,2 A,2 x2 x4 | x12 | C2 F,2 F,2 E,2 E,2 D,2 | %21
 B,2 E,2 E,2 D,2 D,2 E,2 | E,2 x2 A,4 B,2 x2 | C2 x2 C6 G,2 | D2 A,2 A,2 F,2 F,2 E,2 | %25
 C2 G,2 G,2 E,2 E,2 =F,2 | D2 A,2 A,2 =F,2 F,2 E,2 | E,2 x2 C6 x2 | F,2 x2 x2 x2 =C2 x2 | %29
 B,2 A,2 A,2 G,2 G,2 F,2 | F,2 E,2 E,2 G,2 G,2 F,2 | F,4 F,4 x4 :| %32
V:3
|: D,8 x4 | G,,4 F,,6 x2 | F,4 E,6 x2 | D,4 x8 | D,4 x8 | E,4 E,6 x2 | A,,4 x8 | A,,4 x8 :: %8
 E,4 E,6 x2 | F,2 x2 x8 | ^D,2 x2 x8 | E,8 x4 | =C,6 x2 x4 | x4 x4 G,4 | B,,4 =C,4 D,4 | D,4 x8 | %16
 G,2 x2 x8 | x12 | F,2 x2 x8 | x12 | E,2 x2 x8 | D,2 x4 x4 C,2 | C,2 x2 D,4 D,2 x2 | E,8 x4 | %24
 F,2 x2 x8 | E,2 x2 x8 | =F,2 x2 x8 | A,,2 x2 F,6 x2 | B,,2 x2 x2 x2 D,2 x2 | G,2 x2 x8 | %30
 G,,4 A,,8 | A,,8 x4 :| %32
V:4
|: x12 | x12 | A,,4 x8 | x12 | B,,4 x8 | ^G,,4 x8 | x12 | x12 :: A,,4 G,,6 x2 | F,,2 x2 x8 | x12 | %11
 x12 | x12 | x12 | x12 | G,,4 x8 | x12 | x12 | x12 | x12 | x12 | x12 | x4 x4 B,,2 x2 | A,,8 x4 | %24
 A,,2 x2 x8 | A,,2 x2 x8 | A,,2 x2 x8 | x2 x2 ^A,,6 x2 | x12 | G,,2 x2 x8 | x12 | D,,8 x4 :| %32

